public/svg/ai.svg

<svg viewBox="0 0 24 24" fill="currentColor" xmlns="http://www.w3.org/2000/svg">
  <path fill-rule="evenodd" clip-rule="evenodd"
    d="M8.7587 5H15.2413C16.0463 4.99999 16.7106 4.99998 17.2518 5.04419C17.8139 5.09012 18.3306 5.18868 18.816 5.43597C19.5686 5.81947 20.1805 6.43139 20.564 7.18404C20.8113 7.66937 20.9099 8.18608 20.9558 8.74817C21 9.28936 21 9.95372 21 10.7587V15.2413C21 16.0463 21 16.7106 20.9558 17.2518C20.9099 17.8139 20.8113 18.3306 20.564 18.816C20.1805 19.5686 19.5686 20.1805 18.816 20.564C18.3306 20.8113 17.8139 20.9099 17.2518 20.9558C16.7106 21 16.0463 21 15.2413 21H8.75873C7.95374 21 7.28938 21 6.74817 20.9558C6.18608 20.9099 5.66937 20.8113 5.18404 20.564C4.43139 20.1805 3.81947 19.5686 3.43597 18.816C3.18868 18.3306 3.09012 17.8139 3.04419 17.2518C2.99998 16.7106 2.99999 16.0463 3 15.2413V10.7587C2.99999 9.95373 2.99998 9.28937 3.04419 8.74817C3.09012 8.18608 3.18868 7.66937 3.43597 7.18404C3.81947 6.43139 4.43139 5.81947 5.18404 5.43597C5.66937 5.18868 6.18608 5.09012 6.74817 5.04419C7.28937 4.99998 7.95373 4.99999 8.7587 5ZM6.91104 7.03755C6.47262 7.07337 6.24842 7.1383 6.09202 7.21799C5.7157 7.40973 5.40973 7.71569 5.21799 8.09202C5.1383 8.24842 5.07337 8.47262 5.03755 8.91104C5.00078 9.36113 5 9.94342 5 10.8V15.2C5 16.0566 5.00078 16.6389 5.03755 17.089C5.07337 17.5274 5.1383 17.7516 5.21799 17.908C5.40973 18.2843 5.7157 18.5903 6.09202 18.782C6.24842 18.8617 6.47262 18.9266 6.91104 18.9624C7.36113 18.9992 7.94342 19 8.8 19H15.2C16.0566 19 16.6389 18.9992 17.089 18.9624C17.5274 18.9266 17.7516 18.8617 17.908 18.782C18.2843 18.5903 18.5903 18.2843 18.782 17.908C18.8617 17.7516 18.9266 17.5274 18.9624 17.089C18.9992 16.6389 19 16.0566 19 15.2V10.8C19 9.94342 18.9992 9.36113 18.9624 8.91104C18.9266 8.47262 18.8617 8.24842 18.782 8.09202C18.5903 7.71569 18.2843 7.40973 17.908 7.21799C17.7516 7.1383 17.5274 7.07337 17.089 7.03755C16.6389 7.00078 16.0566 7 15.2 7H8.8C7.94342 7 7.36113 7.00078 6.91104 7.03755Z" />
  <path fill-rule="evenodd" clip-rule="evenodd"
    d="M10 2.43L10 3.00006C9.99997 3.55235 9.55222 4.00003 8.99994 4C8.44766 3.99997 7.99997 3.55222 8 2.99994L8.00006 1.99994C8.00008 1.74201 8.09975 1.49407 8.27826 1.3079C8.52078 1.05498 8.88254 0.687155 9.51489 0.412789C10.1265 0.147442 10.9151 0 12 0C13.085 0 13.8736 0.147454 14.4852 0.412808C15.1175 0.687178 15.4793 1.055 15.7218 1.30788C15.9003 1.49406 16 1.74204 16 2V3C16 3.55228 15.5523 4 15 4C14.4477 4 14 3.55228 14 3V2.42998C13.9115 2.36092 13.8144 2.30192 13.6891 2.24754C13.4093 2.12611 12.9151 2 12 2C11.085 2 10.5908 2.12611 10.3109 2.24754C10.1856 2.30192 10.0886 2.36092 10 2.43Z" />
  <path fill-rule="evenodd" clip-rule="evenodd"
    d="M8.2 14.4C8.53137 13.9582 9.15817 13.8686 9.6 14.2C10.4066 14.805 11.1886 15.0004 11.9995 15C12.8103 14.9996 13.594 14.8045 14.4 14.2C14.8418 13.8686 15.4686 13.9582 15.8 14.4C16.1314 14.8418 16.0418 15.4686 15.6 15.8C14.406 16.6955 13.1879 16.9994 12.0005 17C10.8097 17.0006 9.59337 16.695 8.4 15.8C7.95817 15.4686 7.86863 14.8418 8.2 14.4Z" />
  <path
    d="M7 11.5C7 10.6716 7.67157 10 8.5 10C9.32843 10 10 10.6716 10 11.5C10 12.3284 9.32843 13 8.5 13C7.67157 13 7 12.3284 7 11.5Z" />
  <path
    d="M14 11.5C14 10.6716 14.6716 10 15.5 10C16.3284 10 17 10.6716 17 11.5C17 12.3284 16.3284 13 15.5 13C14.6716 13 14 12.3284 14 11.5Z" />
</svg>

<svg viewBox="0 0 24 24" fill="currentColor" xmlns="http://www.w3.org/2000/svg"><path fill-rule="evenodd" clip-rule="evenodd" d="M8.759 5h6.482c.805 0 1.47 0 2.01.044.563.046 1.08.145 1.565.392a4 4 0 0 1 1.748 1.748c.247.485.346 1.002.392 1.564.044.541.044 1.206.044 2.01v4.483c0 .805 0 1.47-.044 2.01-.046.563-.145 1.08-.392 1.565a4 4 0 0 1-1.748 1.748c-.485.247-1.002.346-1.564.392-.541.044-1.206.044-2.01.044H8.758c-.805 0-1.47 0-2.01-.044-.563-.046-1.08-.145-1.565-.392a4 4 0 0 1-1.748-1.748c-.247-.485-.346-1.002-.392-1.564C3 16.71 3 16.046 3 15.242v-4.483c0-.805 0-1.47.044-2.01.046-.563.145-1.08.392-1.565a4 4 0 0 1 1.748-1.748c.485-.247 1.002-.346 1.564-.392C7.29 5 7.954 5 8.758 5zM6.91 7.038c-.438.035-.663.1-.819.18a2 2 0 0 0-.874.874c-.08.156-.145.38-.18.819C5 9.361 5 9.943 5 10.8v4.4c0 .857 0 1.439.038 1.889.035.438.1.663.18.819a2 2 0 0 0 .874.874c.156.08.38.145.819.18C7.361 19 7.943 19 8.8 19h6.4c.857 0 1.439 0 1.889-.038.438-.035.663-.1.819-.18a2 2 0 0 0 .874-.874c.08-.156.145-.38.18-.819.037-.45.038-1.032.038-1.889v-4.4c0-.857 0-1.439-.038-1.889-.035-.438-.1-.663-.18-.819a2 2 0 0 0-.874-.874c-.156-.08-.38-.145-.819-.18C16.639 7 16.057 7 15.2 7H8.8c-.857 0-1.439 0-1.889.038zM10 2.43V3a1 1 0 1 1-2 0V2a1 1 0 0 1 .278-.692c.243-.253.605-.62 1.237-.895C10.126.147 10.915 0 12 0s1.874.147 2.485.413c.633.274.994.642 1.237.895A1 1 0 0 1 16 2v1a1 1 0 1 1-2 0v-.57a1.387 1.387 0 0 0-.31-.182C13.41 2.126 12.914 2 12 2c-.915 0-1.41.126-1.69.248a1.388 1.388 0 0 0-.31.182z"/><path fill-rule="evenodd" clip-rule="evenodd" d="M8.2 14.4a1 1 0 0 1 1.4-.2c.807.605 1.589.8 2.4.8.81 0 1.594-.195 2.4-.8a1 1 0 0 1 1.2 1.6A5.808 5.808 0 0 1 12 17a5.798 5.798 0 0 1-3.6-1.2 1 1 0 0 1-.2-1.4z"/><path d="M7 11.5a1.5 1.5 0 1 1 3 0 1.5 1.5 0 0 1-3 0zm7 0a1.5 1.5 0 1 1 3 0 1.5 1.5 0 0 1-3 0z"/></svg>
